icons/svg/eyedropper-color-accent.svg

<svg width="24" height="24" viewBox="0 0 24 24" fill="none" xmlns="http://www.w3.org/2000/svg">
<path d="M7.94107 19.9684L14.0496 13.8599H6.23486L4.03272 16.062C3.82779 16.2669 3.72533 16.3694 3.64557 16.4868C3.57479 16.591 3.51741 16.7037 3.4748 16.8222C3.42678 16.9558 3.40421 17.0989 3.35907 17.3852L3.26321 17.9931C3.0897 19.0934 3.00294 19.6436 3.17577 20.043C3.32708 20.3927 3.6058 20.6717 3.95534 20.8233C4.35458 20.9966 4.90483 20.9104 6.00531 20.738L6.61542 20.6425C6.90222 20.5975 7.04563 20.5751 7.17946 20.5271C7.29822 20.4845 7.41114 20.4271 7.51553 20.3562C7.63316 20.2763 7.7358 20.1737 7.94107 19.9684Z" fill="currentColor"/>
</svg>

<svg xmlns="http://www.w3.org/2000/svg" width="24" height="24" fill="none" viewBox="0 0 24 24"><path fill="currentColor" d="m7.941 19.968 6.109-6.108H6.235l-2.202 2.202c-.205.205-.308.307-.387.425a1.5 1.5 0 0 0-.171.335c-.048.134-.07.277-.116.563l-.096.608c-.173 1.1-.26 1.65-.087 2.05.151.35.43.629.78.78.399.174.949.087 2.05-.085l.61-.096c.286-.044.43-.067.563-.115q.18-.065.337-.17c.117-.08.22-.183.425-.389"/></svg>
